X:1
T:Make Me a Blessing Today
T:Make Me a Blessing Today
T:William Howard Doane
T:Frances Jane (Fanny) Crosby, 1899
T:Public Domain Courtesy of the Cyber Hymnal™
T:Public Domain Courtesy of the Cyber Hymnal™
C:William Howard Doane
Z:Public Domain
Z:Courtesy of the Cyber Hymnal™
%%score 1 ( 2 3 )
L:1/8
Q:1/4=82
M:6/8
K:Bb
V:1 treble 
V:2 bass 
V:3 bass 
V:1
 [DF] | [DF]>[^C=E][DF] [_EG][DF][DF] | [EF][EG][EA] [DB]2 [DB] | [CA]>[CA][CA] [CA][DB][Ec] | %4
w: 1.~Oh,|soft- ly the Spir- it is|whis- pering to me, With|ten- der com- pas- sion, with|
w: 2.~Some|heart may be long- ing, for|on- ly a word, Whose|love by the Spir- it is|
w: 3.~Some|soul may be plunged in the|dark- est des- pair, Where|sha- dows would melt in the|
w: 4.~Come,|all ye that la- bor, ye|wea- ry and worn, Come|ye who in sor- row or|
 [Ec][DB][EA] [DB]2 [DF] | [DF]>[^C=E][DF] [_EG][DF][DF] | [DF][FB][Fc] [Fd]2 [FB] | %7
w: pi- ty- ing plea; I|hear His be- seech- ing, and|ear- nest- ly pray That|
w: quick- ened and stirred; Now|grant, bless- èd Sav- ior, this|ser- vice to me, Of|
w: sun- light of prayer; O|give me, dear Sav- ior, I|hum- bly im- plore, The|
w: sin- ful- ness mourn; With|me this pe- ti- tion to|Je- sus con- vey: O|
 [Gc][GB][EG] [DF]>[DF][DF] | [EF][EG][EA] [DB]2 ||"^Refrain" [DF] | [Fd]4 [Fc][FB] | %11
w: Je- sus will make me a|bless- ing to- day.|||
w: speak- ing a com- fort- ing|mes- sage for Thee.|Lord,|make me a|
w: sweet con- so- la- tion that|soul to res- tore.|||
w: make me a bless- ing, dear|Sav- ior, to- day.|||
 [Ec][EB][EG] [DF]2 [DF] | [DB]>[DB][DB] [=EB][EA][EB] | [F-d]3 [Fc]2 [EF] | %14
w: |||
w: bless- ing to- day, A|bless- ing to some one, I|pray; * In|
w: |||
w: |||
 [DF][^C=E][DF] [DB]2 [Fd] | [Fd][=E^c][Fd] [G_e]2 [_EG] | [DF]>[DF][DF] [EF][EG][EA] | %17
w: |||
w: all that I do, in|all that I say, O|make me a bless- ing to-|
w: |||
w: |||
 [DB]3- [DB]2 |] %18
w: |
w: day. *|
w: |
w: |
V:2
 [B,,B,] | [B,,B,]>[B,,B,][B,,B,] [B,,B,][B,,B,][B,,B,] | [F,A,][F,B,][F,C] [B,,B,]2 [B,,B,] | %3
w: ~|~ ~ ~ ~ ~ ~|~ ~ ~ ~ ~|
 F,>F,F, F,F,[F,A,] | [F,A,][F,A,][F,C] [B,,B,]2 [B,,B,] | %5
w: ~ ~ ~ ~ ~ ~|~ ~ ~ ~ ~|
 [B,,B,]>[B,,B,][B,,B,] [B,,B,][B,,B,][B,,B,] | [B,,B,][D,B,][F,A,] B,2 [D,B,] | %7
w: ~ ~ ~ ~ ~ ~|~ ~ ~ ~ ~|
 [E,E][E,E][E,B,] [F,B,]>[F,B,][F,B,] | [F,A,][F,B,][F,C] [B,,B,]2 || [B,,B,] | %10
w: ~ ~ ~ ~ ~ ~|~ ~ ~ ~|Lord,|
 [B,,B,][B,,B,][B,,B,] [B,,B,][C,A,][D,B,] | [E,G,][E,B,][E,B,] [B,,B,]2 [B,,B,] | %12
w: make me a bless- ing, ~|~ ~ ~ ~ ~|
 [G,B,]>[G,B,][G,B,] [C,C][C,C][C,C] | [F,B,]2 [F,B,] [F,A,]2 [F,A,] | %14
w: ~ ~ ~ ~ ~ ~|~ I pray; *|
 [B,,B,][B,,B,][B,,B,] [B,,B,]2 [B,,B,] | [B,,B,][B,,B,][B,,B,] [E,B,]2 [E,B,] | %16
w: ||
 [F,B,]>[F,B,][F,B,] [F,A,][F,B,][F,C] | [B,,B,]3- [B,,B,]2 |] %18
w: ||
V:3
 x | x6 | x6 | F,>F,F, F,F, x | x6 | x6 | x3 B,2 x | x6 | x5 || x | x6 | x6 | x6 | x6 | x6 | x6 | %16
 x6 | x5 |] %18

